twotone/svg/person_pin_circle.svg

<svg xmlns="http://www.w3.org/2000/svg" width="24" height="24"><path fill="none" d="M0 0h24v24H0V0z"/><g fill="currentColor"><path opacity=".3" d="M6 9c0 3.54 3.82 8.86 6 11.47 1.75-2.11 6-7.63 6-11.47 0-3.31-2.69-6-6-6S6 5.69 6 9zm9 2.5v.12c-.73.84-1.8 1.38-3 1.38s-2.27-.54-3-1.38v-.12c0-1 2-1.5 3-1.5s3 .5 3 1.5zm-1.5-4c0 .83-.67 1.5-1.5 1.5s-1.5-.67-1.5-1.5S11.17 6 12 6s1.5.67 1.5 1.5z"/><path d="M4 9c0 5.57 6.96 13.34 7.26 13.67l.74.82.74-.82C13.04 22.34 20 14.57 20 9c0-4.41-3.59-8-8-8S4 4.59 4 9zm14 0c0 3.83-4.25 9.36-6 11.47C9.82 17.86 6 12.54 6 9c0-3.31 2.69-6 6-6s6 2.69 6 6z"/><path d="M10.5 7.5c0 .83.67 1.5 1.5 1.5s1.5-.67 1.5-1.5S12.83 6 12 6s-1.5.67-1.5 1.5zM9 11.5v.12c.73.84 1.8 1.38 3 1.38s2.27-.54 3-1.38v-.12c0-1-2-1.5-3-1.5s-3 .5-3 1.5z"/></g></svg>

<?xml version="1.0" encoding="utf-8"?>
<!-- Generator: Adobe Illustrator 19.1.0, SVG Export Plug-In . SVG Version: 6.00 Build 0)  -->
<svg version="1.1" xmlns="http://www.w3.org/2000/svg" xmlns:xlink="http://www.w3.org/1999/xlink" x="0px" y="0px" width="24px"
	 height="24px" viewBox="0 0 24 24" enable-background="new 0 0 24 24" xml:space="preserve">
<g id="Bounding_Boxes">
	<path fill="none" d="M0,0h24v24H0V0z"/>
</g>
<g id="Duotone" fill="currentColor">
	<g id="ui_x5F_spec_x5F_header_copy_2">
	</g>
	<g>
		<path opacity="0.3" d="M6,9c0,3.54,3.82,8.86,6,11.47c1.75-2.11,6-7.63,6-11.47c0-3.31-2.69-6-6-6S6,5.69,6,9z M15,11.5v0.12
			c-0.73,0.84-1.8,1.38-3,1.38s-2.27-0.54-3-1.38V11.5c0-1,2-1.5,3-1.5S15,10.5,15,11.5z M13.5,7.5C13.5,8.33,12.83,9,12,9
			s-1.5-0.67-1.5-1.5C10.5,6.67,11.17,6,12,6S13.5,6.67,13.5,7.5z"/>
		<path d="M4,9c0,5.57,6.96,13.34,7.26,13.67L12,23.49l0.74-0.82C13.04,22.34,20,14.57,20,9c0-4.41-3.59-8-8-8S4,4.59,4,9z M18,9
			c0,3.83-4.25,9.36-6,11.47C9.82,17.86,6,12.54,6,9c0-3.31,2.69-6,6-6S18,5.69,18,9z"/>
		<path d="M10.5,7.5C10.5,8.33,11.17,9,12,9s1.5-0.67,1.5-1.5C13.5,6.67,12.83,6,12,6S10.5,6.67,10.5,7.5z"/>
		<path d="M9,11.5v0.12c0.73,0.84,1.8,1.38,3,1.38s2.27-0.54,3-1.38V11.5c0-1-2-1.5-3-1.5S9,10.5,9,11.5z"/>
	</g>
</g>
</svg>
